images/skm.svg

<svg height="250" viewBox="0 0 250 250" width="250" xmlns="http://www.w3.org/2000/svg"><path d="m250 187.445312v-124.890624l-125.011719-62.445313-124.988281 62.445313v124.890624l124.988281 62.445313zm0 0"/><g fill="#fff"><path d="m124.988281 86.640625 58.867188 38.324219v-25.433594l-58.867188-38.324219zm0 0"/><path d="m66.144531 99.53125 117.710938 76.367188v-25.429688l-117.710938-76.367188zm0 0"/><path d="m66.144531 150.46875 58.84375 38.304688v-25.769532l-58.84375-37.96875zm0 0"/></g></svg>

<svg xmlns="http://www.w3.org/2000/svg" xmlns:xlink="http://www.w3.org/1999/xlink" width="250px" height="250px" viewBox="0 0 250 250" version="1.1">
<g id="surface1">
<path style=" stroke:none;fill-rule:nonzero;fill:rgb(0%,0%,0%);fill-opacity:1;" d="M 250 187.445312 L 250 62.554688 L 124.988281 0.109375 L 0 62.554688 L 0 187.445312 L 124.988281 249.890625 Z M 250 187.445312 "/>
<path style=" stroke:none;fill-rule:nonzero;fill:rgb(100%,100%,100%);fill-opacity:1;" d="M 124.988281 86.640625 L 183.855469 124.964844 L 183.855469 99.53125 L 124.988281 61.207031 Z M 124.988281 86.640625 "/>
<path style=" stroke:none;fill-rule:nonzero;fill:rgb(100%,100%,100%);fill-opacity:1;" d="M 66.144531 99.53125 L 183.855469 175.898438 L 183.855469 150.46875 L 66.144531 74.101562 Z M 66.144531 99.53125 "/>
<path style=" stroke:none;fill-rule:nonzero;fill:rgb(100%,100%,100%);fill-opacity:1;" d="M 66.144531 150.46875 L 124.988281 188.773438 L 124.988281 163.003906 L 66.144531 125.035156 Z M 66.144531 150.46875 "/>
</g>
</svg>
